ligands/haptic/eta6-benzene.svg

<svg height="69" viewBox="0 0 96 69" width="96" xmlns="http://www.w3.org/2000/svg"><g transform="matrix(.05 0 0 .05 -177 -235)"><path d="m4490 6040h-20v-57.33h20z"/><path d="m4490 5925.33h-20v-57.33h20z"/><path d="m4490 5810.67h-20v-57.34h20z"/><path d="m4490 5696h-20v-57.33h20z"/><path d="m4490 5466.67h-20v-57.34h20z"/><path d="m4490 5352h-20v-57.33h20z"/><path d="m4490 5237.33h-20v-57.33h20z"/><path d="m4906.01 5519.84 90.7 80.3-991.44-3.32 91.24-79.69z"/><path d="m5389.01 5165.35 30.36.11-422.66 434.68-90.7-80.3z"/><path d="m4951.21 4779.06 7.59-19.98 460.57 406.38-30.36-.11z"/><path d="m4056.28 4776.06-7.46-20.02 909.98 3.04-7.59 19.98z"/><path d="m3615.9 5159.41-30.36-.08 463.28-403.29 7.46 20.02z"/><path d="m4096.51 5517.13-91.24 79.69-419.73-437.49 30.36.08z"/><path d="m3865.3 5160.89c-.6 177.95 284.38 323.35 636.07 324.53s637.64-142.31 638.24-320.27c.59-177.95-284.39-323.35-636.08-324.53s-637.64 142.31-638.23 320.27" fill="none" stroke="#000" stroke-width="20"/></g></svg>

<svg xmlns="http://www.w3.org/2000/svg" xmlns:xlink="http://www.w3.org/1999/xlink" width="96" height="69" version="1.1" viewBox="0 0 96 69" style="background-color:#ffffff00"><path fill="#000" stroke="none" d="M 4490,6040 L 4470,6040 L 4470,5982.67 L 4490,5982.67 L 4490,6040 L 4490,6040 Z" transform="matrix(0.05 0 0 0.05 -177 -235)"/><path fill="#000" stroke="none" d="M 4490,5925.33 L 4470,5925.33 L 4470,5868 L 4490,5868 L 4490,5925.33 L 4490,5925.33 Z" transform="matrix(0.05 0 0 0.05 -177 -235)"/><path fill="#000" stroke="none" d="M 4490,5810.67 L 4470,5810.67 L 4470,5753.33 L 4490,5753.33 L 4490,5810.67 L 4490,5810.67 Z" transform="matrix(0.05 0 0 0.05 -177 -235)"/><path fill="#000" stroke="none" d="M 4490,5696 L 4470,5696 L 4470,5638.67 L 4490,5638.67 L 4490,5696 L 4490,5696 Z" transform="matrix(0.05 0 0 0.05 -177 -235)"/><path fill="#000" stroke="none" d="M 4490,5466.67 L 4470,5466.67 L 4470,5409.33 L 4490,5409.33 L 4490,5466.67 L 4490,5466.67 Z" transform="matrix(0.05 0 0 0.05 -177 -235)"/><path fill="#000" stroke="none" d="M 4490,5352 L 4470,5352 L 4470,5294.67 L 4490,5294.67 L 4490,5352 L 4490,5352 Z" transform="matrix(0.05 0 0 0.05 -177 -235)"/><path fill="#000" stroke="none" d="M 4490,5237.33 L 4470,5237.33 L 4470,5180 L 4490,5180 L 4490,5237.33 L 4490,5237.33 Z" transform="matrix(0.05 0 0 0.05 -177 -235)"/><path fill="#000" stroke="none" d="M 4906.01,5519.84 L 4996.71,5600.14 L 4005.27,5596.82 L 4096.51,5517.13 L 4906.01,5519.84 Z" transform="matrix(0.05 0 0 0.05 -177 -235)"/><path fill="#000" stroke="none" d="M 5389.01,5165.35 L 5419.37,5165.46 L 4996.71,5600.14 L 4906.01,5519.84 L 5389.01,5165.35 Z" transform="matrix(0.05 0 0 0.05 -177 -235)"/><path fill="#000" stroke="none" d="M 4951.21,4779.06 L 4958.8,4759.08 L 5419.37,5165.46 L 5389.01,5165.35 L 4951.21,4779.06 Z" transform="matrix(0.05 0 0 0.05 -177 -235)"/><path fill="#000" stroke="none" d="M 4056.28,4776.06 L 4048.82,4756.04 L 4958.8,4759.08 L 4951.21,4779.06 L 4056.28,4776.06 Z" transform="matrix(0.05 0 0 0.05 -177 -235)"/><path fill="#000" stroke="none" d="M 3615.9,5159.41 L 3585.54,5159.33 L 4048.82,4756.04 L 4056.28,4776.06 L 3615.9,5159.41 Z" transform="matrix(0.05 0 0 0.05 -177 -235)"/><path fill="#000" stroke="none" d="M 4096.51,5517.13 L 4005.27,5596.82 L 3585.54,5159.33 L 3615.9,5159.41 L 4096.51,5517.13 Z" transform="matrix(0.05 0 0 0.05 -177 -235)"/><path fill="none" stroke="#000" stroke-width="20" d="M 3865.3,5160.89 C 3864.7,5338.84 4149.68,5484.24 4501.37,5485.42 C 4853.06,5486.6 5139.01,5343.11 5139.61,5165.15 C 5140.2,4987.2 4855.22,4841.8 4503.53,4840.62 C 4151.84,4839.44 3865.89,4982.93 3865.3,5160.89" transform="matrix(0.05 0 0 0.05 -177 -235)"/></svg>
